X:390
T:Lord Elcho
R:Reel
O:Scotland
C:Robert Mackintosh
B:The Fiddle Music of Scotland
S:The Fiddle Music of Scotland
Z:Transcription, chords:Mike Long
M:C|
L:1/8
K:G
d|\
"G"[D2B2g2] dB "C"cgec|"G"BgdB "D"cAFD|"G"[D2B2g2] dB "C"cgec|"G"Bd"D"Ac "G"BGG:|\
B|\
"G"DGBG "C"AGBG|"G"DGBG "D"AGAB|
"G"DGBG "C"AGBG|"G"DE"D"DC "G"B,G,G,G|\
"G"DGBG "C"AGBG|"G"DGBG "D"AGEc|"G"BAGF "C"GFED|"D"EFGA "G"BGG|]
